X: 2
T: The Drunken Landlady
R: reel
M: 4/4
L: 1/8
K: Edor
FA|BE~E2 BAFA|BE~E2 BAFG|ABAF DEFD|FAAd BAFA|BE~E2 BAFA|B2cA BAFG|A2Bc defe|dBAF E2:|FA|Beed e2de|f2df e2dB|ABAF DEFD|FAAd BAFA|Beed e2de|f2df e2dB|~A3B defe|dBAF E2:|


Tune 363	Setting 363

